X:12
T:WMNSWRK2- Woman's work will never be done
S:Blaikie MS, c 1692 via Glen's ESM
Q:1/4=120
L:1/4
M:C
K:Gm
DFF3/2 G/|F/G/F/D/F3/2F/|DGGB/c/|dc/B/F3/2F/|DFF3/2G/|\
F/G/F/D/F3/2B/|B/G/F/G/ d c/d/|e/d/c/B/G2||\
Bc/d/f3/2g/|f/d/c/d/f2|cd/f/g3/2a/|g/f/b/a/g3/2f/|\
fg/a/b3/2g/|f/e/d/c/B3/2B/|c/d/f/g/ f/d/c/d/|c3/2B/G2|]

